X:121
T:The humours of Westport
R:Reel
O:Ireland
B:O'Neill's 1177
B:Krassen O'Neill's 2 p91
S:My arrangement from various sources- mostly O'Neill's
Z:Transcription, arrangement, chords:Mike Long
M:C|
L:1/8
K:F
"F"f2{g}fe fcAc|"F"f2{g}fe "C"fage|"F"fage fcAc|"Bb"~BAGA "C"Bcde|\
"F"f2{g}fe fcAc|
"F"f2{g}fe "C"fagb|"F"afge fcAc|"Bb"~BAGA "C"BdcB|]\
"F"AFcF dFcF|"F"AFcF "Bb"BdcB|
"F"AFcF dFcF|"Bb"~BAGA "C"BdcB|\
"F"AF~F2 dFcF|"F"AFcF "Bb"BdcB|"F"Acfa "C"gefc|"Bb"~BAGA "(C)"Bcde|]
